icons/CirclePlus_filled_transparent.svg

<svg width="24" height="24" viewBox="0 0 24 24" fill="none" xmlns="http://www.w3.org/2000/svg">
<path fill-rule="evenodd" clip-rule="evenodd" d="M21.75,12c0,5.3848 -4.3652,9.75 -9.75,9.75c-5.38478,0 -9.75,-4.3652 -9.75,-9.75c0,-5.38478 4.36522,-9.75 9.75,-9.75c5.3848,0 9.75,4.36522 9.75,9.75zM12.75,9c0,-0.41422 -0.3358,-0.75 -0.75,-0.75c-0.4142,0 -0.75,0.33578 -0.75,0.75v2.25l-2.25,0.0001c-0.41421,0 -0.74999,0.3357 -0.74999,0.75c0,0.4142 0.33579,0.75 0.75,0.75l2.24999,-0.0001v2.25c0,0.4142 0.3358,0.75 0.75,0.75c0.4142,0 0.75,-0.3358 0.75,-0.75v-2.25h2.25c0.4142,0 0.75,-0.3358 0.75,-0.75c0,-0.4142 -0.3358,-0.75 -0.75,-0.75h-2.25z" fill="#002B51"/>
</svg>

<svg width="24" height="24" viewBox="0 0 24 24" fill="none" xmlns="http://www.w3.org/2000/svg">
<path fill-rule="evenodd" clip-rule="evenodd" d="M12 2.25C6.61522 2.25 2.25 6.61522 2.25 12C2.25 17.3848 6.61522 21.75 12 21.75C17.3848 21.75 21.75 17.3848 21.75 12C21.75 6.61522 17.3848 2.25 12 2.25ZM12.75 9C12.75 8.58578 12.4142 8.25 12 8.25C11.5858 8.25 11.25 8.58578 11.25 9V11.25L9 11.2501C8.58579 11.2501 8.25001 11.5858 8.25001 12.0001C8.25001 12.4143 8.5858 12.7501 9.00001 12.7501L11.25 12.75V15C11.25 15.4142 11.5858 15.75 12 15.75C12.4142 15.75 12.75 15.4142 12.75 15V12.75L15 12.75C15.4142 12.75 15.75 12.4142 15.75 12C15.75 11.5858 15.4142 11.25 15 11.25L12.75 11.25V9Z" fill="#002B51"/>
</svg>
